website/public/Images/logos/mongodb.svg

<svg width="12" height="28" viewBox="0 0 12 28" fill="none" xmlns="http://www.w3.org/2000/svg">
<path d="M11.7342 11.116C10.3209 4.62 7.41423 2.884 6.66756 1.68C6.2409 1.008 5.8409 0 5.8409 0C5.81423 0.56 5.73423 0.952 5.25423 1.372C4.3209 2.24 0.347563 5.656 0.0275629 13.02C-0.292437 19.88 4.82756 24.136 5.5209 24.584C6.05423 24.864 6.66756 24.584 6.98756 24.332C9.4409 22.568 12.8276 17.808 11.7342 11.116Z" fill="#10AA50"/>
<path d="M6.05316 20.916C5.91983 22.624 5.83983 23.604 5.49316 24.584C5.59946 25.6968 5.72392 26.8077 5.8665 27.916H6.39983C6.5865 25.984 6.9865 24.332 6.9865 24.332C6.29316 23.968 6.07983 22.4 6.05316 20.916Z" fill="#B8C4C2"/>
<path d="M6.98659 24.3326C6.29326 23.9966 6.07992 22.4006 6.05326 20.9166C6.21326 18.9006 6.29325 16.2966 6.21325 13.5806C6.18659 12.2926 6.23992 1.68062 5.91992 0.140625C6.05326 0.448625 6.37326 1.14863 6.66659 1.68062C7.41326 2.91263 10.3199 4.62063 11.7333 11.1166C12.7999 17.8086 9.46659 22.5406 6.98659 24.3326Z" fill="#12924F"/>
</svg>

<svg xmlns="http://www.w3.org/2000/svg" width="12" height="28" fill="none" xmlns:v="https://vecta.io/nano"><path d="M11.734 11.116C10.321 4.62 7.414 2.884 6.668 1.68 6.241 1.008 5.841 0 5.841 0c-.027.56-.107.952-.587 1.372C4.321 2.24.348 5.656.028 13.02c-.32 6.86 4.8 11.116 5.493 11.564.533.28 1.147 0 1.467-.252 2.453-1.764 5.84-6.524 4.747-13.216z" fill="#10aa50"/><path d="M6.053 20.916c-.133 1.708-.213 2.688-.56 3.668l.373 3.332H6.4c.187-1.932.587-3.584.587-3.584-.693-.364-.907-1.932-.933-3.416z" fill="#b8c4c2"/><path d="M6.987 24.333c-.693-.336-.907-1.932-.933-3.416a70.02 70.02 0 0 0 .16-7.336c-.027-1.288.027-11.9-.293-13.44.133.308.453 1.008.747 1.54.747 1.232 3.653 2.94 5.067 9.436 1.067 6.692-2.267 11.424-4.747 13.216z" fill="#12924f"/></svg>
